!!!!SEGMENT: 074-1-G-007.krn
!!!COM: Fryderyk Chopin
!!!OTL: Poseł
!!!OPS: Op. 74
!!!PTL: Zbiór śpiewów polskich z towarzyszeniem fortepianu
!!!PPR: Gebethner
!!!PPP: Warsaw
!!!AGN: Song
!!!NIFC-rismID: 300605193
!!!NIFC-shelfmark: PL-Wbfc 963/n
!!!OMD: Andantino
!!!OMD: M. M. [eighth] = 100.
**kern	**kern	**dynam	**kern	**text	**dynam
*part2	*part2	*part2	*part1	*	*part1
*staff3	*staff2	*	*staff1	*	*
*I"PIANO.	*I"PIANO.	*	*I"CANTO.	*	*
*clefF4	*clefG2	*	*clefG2	*	*
*k[f#c#]	*k[f#c#]	*	*k[f#c#]	*	*
*D:	*D:	*	*D:	*	*
*M2/4	*M2/4	*	*M2/4	*	*
*	*	*	*	*	*
=1	=1	=1	=1	=1	=1
*	*^	*	*	*	*
2A 2D	2a	8.gL	.	2rdd	.	.
.	.	16f#Jk	.	.	.	.
.	.	16eLL	.	.	.	.
.	.	16f#J	.	.	.	.
.	.	8dJ	.	.	.	.
=2	=2	=2	=2	=2	=2	=2
2A 2D	2a	8.gL	.	2rdd	.	.
.	.	16f#Jk	.	.	.	.
.	.	16eLL	.	.	.	.
.	.	16f#J	.	.	.	.
.	.	8dJ	.	.	.	.
=3	=3	=3	=3	=3	=3	=3
*^	*	*	*	*	*	*
16BLL	2D	16g#XLL	8e#X	.	2rdd	.	.
16G#XJJ	.	16bJJ	.	.	.	.	.
4.A	.	4.a	4.f#	.	.	.	.
=4	=4	=4	=4	=4	=4	=4	=4
16BLL	2D	16g#XLL	8e#X	.	2rdd	.	.
16G#XJJ	.	16bJJ	.	.	.	.	.
4.A	.	4.a	4.f#	.	.	.	.
*v	*v	*	*	*	*	*	*
=5	=5	=5	=5	=5	=5	=5
2A 2D	2a	8.gL	.	2rdd	.	.
.	.	16f#Jk	.	.	.	.
.	.	16eLL	.	.	.	.
.	.	16f#J	.	.	.	.
.	.	8dJ	.	.	.	.
=6	=6	=6	=6	=6	=6	=6
2A 2D	2a	8.gL	.	2rdd	.	.
.	.	16f#Jk	.	.	.	.
.	.	16eLL	.	.	.	.
.	.	16f#J	.	.	.	.
.	.	8dJ	.	.	.	.
=7	=7	=7	=7	=7	=7	=7
*^	*	*	*	*	*	*
16ELL	2AA	2a	16c#LL	.	2rdd	.	.
16F#JJ	.	.	16AJJ	.	.	.	.
4.E	.	.	4.c#	.	.	.	.
=8	=8	=8	=8	=8	=8	=8	=8
16ELL	2AA	2a	16c#LL	.	2rdd	.	.
16F#JJ	.	.	16AJJ	.	.	.	.
4.E;<	.	.	4.c#;>	.	.	.	.
*v	*v	*	*	*	*	*	*
*	*v	*v	*	*	*	*
!!LO:LB:g=original
=9||	=9||	=9||	=9||	=9||	=9||
!	!	!LO:DY:rj	!	!	!
4A 4D	4f# 4d	pp	8d	Bły-	.
!	!	!	!	!	!LO:HP:a
.	.	.	8e	-sło	.<
8AL 8D	8f#L 8d	.	8f#	ran-	.
8AJ 8D	8f#J 8d	.	8b/	-ne	.[[
=10	=10	=10	=10	=10	=10
*^	*	*	*	*	*
!	!	!	!	!	!	!LO:HP:a
2A	4D	2f# 2d	.	4a	zioł-	>
.	(32qqC#/LLL	.	.	.	.	.
.	32qqBB/JJJ)	.	.	.	.	.
.	4AA	.	.	4f#	-ko,	]
*v	*v	*	*	*	*	*
=11	=11	=11	=11	=11	=11
4A 4D	4f# 4d	.	8d	Zi-	.
.	.	.	8e	-mne	.
!	!	!	!	!	!LO:HP:a
8BL 8D	8f#L 8d	<	8f#	dni	<
8BJ 8E	8g#XJ 8d	[[	16g#XLL	się	[
!	!	!	!	!	!LO:HP:a
.	.	.	16f#JJ	.	>
=12	=12	=12	=12	=12	=12
(4A 4E 4AA	(4a 4c#	.	(4e	mie-	]
8E\ 8AA\)	8cc# 8e)	.	8c#)	-nią	.
8r	8r	.	8r	.	.
=13	=13	=13	=13	=13	=13
4A 4D	4f# 4d	.	8d	Ty,	.
!	!	!	!	!	!LO:HP:a
.	.	.	8e	wier-	<
8AL 8D	8f#L 8d	.	8f#	-na	.
8AJ 8D	8f#J 8d	.	8b/	jas-	[[
=14	=14	=14	=14	=14	=14
*^	*	*	*	*	*
!	!	!	!	!	!	!LO:HP:a
2A	4D	2f# 2d	.	4a	-kół-	>
.	(32qqC#/LLL	.	.	.	.	]
.	32qqBB/JJJ)	.	.	.	.	.
.	4AA	.	.	4f#	-ko	.
*v	*v	*	*	*	*	*
=15	=15	=15	=15	=15	=15
4F# 4BB	4f# 4d	.	8d	Znów	.
.	.	.	8e	przed	.
8F#L 8BB	8f#L 8d 8B	.	8f#	na-	.
!	!	!	!	!	!LO:HP:a
8F#J 8BB	8f#J 8d 8B	.	16aLL	-szą	>
.	.	.	16gJJ	.	]]
!!LO:LB:g=original
=16	=16	=16	=16	=16	=16
!	!	!LO:DY:rj	!	!	!LO:HP:a
2F# 2FF#	2f# 2c# 2A#X	sf	4g	sie-	>
.	.	.	8f#	nią	]
.	.	.	8r	.	.
=17	=17	=17	=17	=17	=17
!LO:TX:a:B:t=appass.	!	!	!	!	!
8A#XL	8f#L 8e 8c#	.	8f#	Z to-	.
!	!	!	!	!	!LO:HP:a
8A#	8f# 8e 8c#	.	8f#	-bą	<
!	!	!	!	!	!LO:HP:a
8A#	8f# 8e 8c#	.	8g	słoń-	[>
8A#J	8f#J 8e 8c#	.	8f#	-ce	]]
=18	=18	=18	=18	=18	=18
8BL	8f#L 8d	.	4dd	dłu-	.
8B	8f# 8d	.	.	.	.
8B	8g 8d	.	8b	żéy	.
8BJ	8gJ 8d	.	8r	.	.
.	.	.	8bq	Z	.
=19	=19	=19	=19	=19	=19
!	!	!	!	!	!LO:HP:a
!	!LO:TX:B:t=acceler_:dur=2q:ext=ud:problem:text with line extensions	!	!	!	!
8c#L	8aL 8g 8e	.	8b/	to-	>
8c#	8a 8g 8e	.	8a	-bą	]
!	!	!	!	!	!LO:HP:a
8c#	8a 8g 8e	.	8b/	mi-	>
8c#J	8aJ 8g 8e	.	8a	-ła	]]
=20	=20	=20	=20	=20	=20
*	*^	*	*	*	*
4d	2a	4f#	.	[4a	wios-	.
!	!	!LO:TX:B:t=rall. a tempo.	!	!	!	!
.	.	.	.	.	.	.
[4A	.	4e 4c#	.	(>16aLL]	.	.
.	.	.	.	16gJJ	.	.
!	!	!	!	!	!	!LO:DY:a
.	.	.	.	16f#LL	.	.
.	.	.	.	16eJJ)	-na:	.
*	*v	*v	*	*	*	*
=21	=21	=21	=21	=21	=21
!	!	!LO:DY:a	!	!	!
4A] 4D	4f# 4d	pp	8d	Wi-	.
!	!	!	!	!	!LO:HP:a
.	.	.	8e	-tay	.<
8AL 8D	8f#L 8d	.	8f#	nam	.
8AJ 8D	8f#J 8d	.	8b/	z po-	[[
=22	=22	=22	=22	=22	=22
*^	*	*	*	*	*
2A	4D	4f# 4d	.	4a	-dró-	.
.	(32qqC#/LLL	.	.	.	.	.
.	32qqBB/JJJ)	.	.	.	.	.
!	!	!	!	!	!	!LO:HP:a
.	(4AA	4f# 4d	.	8f#	-ży	>
.	.	.	.	8e	Śpie-	]
*v	*v	*	*	*	*	*
!!LO:PB:g=original
=23	=23	=23	=23	=23	=23
!	!	!	!	!	!LO:HP:a
4A 4D	4f# 4d)	.	8dL	-wacz-	.
!	!	!	!	!	!LO:HP:a
.	.	.	8eJ	.	<
8BL 8D	8f#L 8d	.	8f#	-ko	[[
!	!	!	!	!	!LO:HP:a
8BJ 8E	8g#XJ 8d	.	16g#XLL	ra-	>
.	.	.	16f#JJ	.	]]
=24	=24	=24	=24	=24	=24
(4A 4E 4AA	(>4a 4c#	.	(4e	doś-	.
8E\ 8AA\)	8cc# 8e)	.	8c#)	-na	.
8r	8r	.	8r	.	.
=25	=25	=25	=25	=25	=25
4A 4D	4f# 4d	.	8d	Wi-	.
!	!	!	!	!	!LO:HP:a
.	.	.	8e	tay	<
8AL 8D	8f#L 8d	.	8f#	nam	.
8AJ 8D	8f#J 8d	.	8b/	z po-	[[
=26	=26	=26	=26	=26	=26
4A 4D	4f# 4d	.	4a	-dró-	.
!	!	!	!	!	!LO:HP:a
8AL 8D	8f#L 8d	.	8f#	-ży	<
8AJ 8D	8f#J 8d	.	8a	Śpie-	[[
=27	=27	=27	=27	=27	=27
!	!	!	!	!	!LO:HP:a
!	!	!LO:DY:rj	!	!	!
4GG\	4g 4d 4B-X	sf	8b-XL	-wacz-	>
.	.	.	8aJ	.	.
8AA\L	8gL 8c#< 8A<	.	8g	-ko	]
8AAJ	8gJ 8c#< 8A<	.	8e	ra-	.
=28	=28	=28	=28	=28	=28
!	!	!	!	!	!LO:HP:a
*ped	*	*	*	*	*
4D	2f# 2d 2A<	.	8.f#L	-doś-	>
.	.	.	16eJk	.	.
4DD/	.	.	4d	-na.	]
*Xped	*	*	*	*	*
=29||!	=29||!	=29||!	=29||!	=29||!	=29||!
*	*^	*	*	*	*
2A 2D	2a	8.gLL	p	2rdd	.	.
.	.	16f#JJ	.	.	.	.
.	.	16eL	.	.	.	.
.	.	16f#	.	.	.	.
.	.	8dJ	.	.	.	.
!!LO:LB:g=original
=30	=30	=30	=30	=30	=30	=30
2A 2D	2a	8.gLL	.	2rdd	.	.
.	.	16f#JJ	.	.	.	.
.	.	16eL	.	.	.	.
.	.	16f#	.	.	.	.
.	.	8dJ	.	.	.	.
=31	=31	=31	=31	=31	=31	=31
*^	*	*	*	*	*	*
16B/L	2D	16g#LL	8e#	.	2rdd	.	.
16G#J	.	16bJJ	.	.	.	.	.
4.A/	.	4.a	4.f#\	.	.	.	.
*v	*v	*	*	*	*	*	*
=32	=32	=32	=32	=32	=32	=32
*^	*	*	*	*	*	*
16B/L	2D	16g#LL	8e#	.	2rdd	.	.
16G#J	.	16bJJ	.	.	.	.	.
4.A/	.	4.a	4.f#\	.	.	.	.
*v	*v	*	*	*	*	*	*
=33	=33	=33	=33	=33	=33	=33
2A 2D	2a	8.gLL	.	2rdd	.	.
.	.	16f#JJ	.	.	.	.
.	.	16eL	.	.	.	.
.	.	16f#	.	.	.	.
.	.	8dJ	.	.	.	.
=34	=34	=34	=34	=34	=34	=34
2A 2D	2a	8.gLL	.	2rdd	.	.
.	.	16f#JJ	.	.	.	.
.	.	16eL	.	.	.	.
.	.	16f#	.	.	.	.
.	.	8dJ	.	.	.	.
=35	=35	=35	=35	=35	=35	=35
*^	*	*	*	*	*	*
16E/L	2AA\	2a	16c#L	.	2rdd	.	.
16F#J	.	.	16AJ	.	.	.	.
4.E/	.	.	4.c#	.	.	.	.
*v	*v	*	*	*	*	*	*
=36	=36	=36	=36	=36	=36	=36
*^	*	*	*	*	*	*
16E/L	2AA\	2a	16c#L	.	2rdd	.	.
16F#J	.	.	16AJ	.	.	.	.
4.E;</	.	.	4.c#;>	.	.	.	.
*	*	*v	*v	*	*	*	*
*v	*v	*	*	*	*	*
=37||	=37||	=37||	=37||	=37||	=37||
4A 4D	4f# 4d	.	8d	Nie	.
!	!	!	!	!	!LO:HP:a
.	.	.	8e	leć,	.<
8AL 8D	8f#L 8d	.	8f#	cze-	.
8AJ 8D	8f#J 8d	.	8b/	-kay,	.[[
!!LO:LB:g=original
=38	=38	=38	=38	=38	=38
*^	*	*	*	*	*
!	!	!	!	!	!	!LO:HP:a
2A	4D	2f# 2d	.	4a	sło-	>
.	(32qqC#/LLL	.	.	.	.	.
.	32qqBB/JJJ)	.	.	.	.	.
.	4AA	.	.	4f#	-wo!	]
*v	*v	*	*	*	*	*
=39	=39	=39	=39	=39	=39
4A 4D	4f# 4d	.	8d	Mo-	.
.	.	.	8e	-że	.
!	!	!	!	!	!LO:HP:a
8BL 8D	8f#L 8d	.	8f#	ziar-	<
8BJ 8E	8g#XJ 8d	.	16g#XLL	-ka	[
!	!	!	!	!	!LO:HP:a
.	.	.	16f#JJ	.	>
=40	=40	=40	=40	=40	=40
(4A 4E 4AA	(>4a 4c#	.	(4e	pro-	]
8E\ 8AA\)	8cc# 8e)	.	8c#)	-sisz	.
8r	8r	.	8r	.	.
=41	=41	=41	=41	=41	=41
4A 4D	4f# 4d	.	8d	Mo-	.
!	!	!	!	!	!LO:HP:a
.	.	.	8e	-że	<
8AL 8D	8f#L 8d	.	8f#	piosn-	.
8AJ 8D	8f#J 8d	.	8b/	-kę	[[
=42	=42	=42	=42	=42	=42
*^	*	*	*	*	*
!	!	!	!	!	!	!LO:HP:a
2A	4D	2f# 2d	.	4a	no-	>
.	(32qqC#/LLL	.	.	.	.	]
.	32qqBB/JJJ)	.	.	.	.	.
.	4AA	.	.	4f#	-wą	.
*v	*v	*	*	*	*	*
=43	=43	=43	=43	=43	=43
4F# 4BB	4f# 4d	.	8d	Z cu-	.
.	.	.	8e	-dzych	.
8F#L 8BB	8f#L 8d 8B	.	8f#	stron	.
!	!	!	!	!	!LO:HP:a
8F#J 8BB	8f#J 8d 8B	.	16aLL	przy-	>
.	.	.	16gJJ	.	]]
=44	=44	=44	=44	=44	=44
!	!	!	!	!	!LO:HP:a
2F# 2FF#	2f# 2c# 2A#X	.	4g	-no-	>
.	.	.	8f#	sisz?	]
.	.	.	8r	.	.
!!LO:PB:g=original
=45	=45	=45	=45	=45	=45
!LO:TX:a:B:t=appass.	!	!	!	!	!
8A#XL	8f#L 8e 8c#	.	8f#	La-	.
8A#	8f# 8e 8c#	.	8f#	-tasz	.
8A#	8f# 8e 8c#	.	8g	pa-	.
8A#J	8f#J 8e 8c#	.	8f#	-trzysz	]]
!	!LO:TX:b:t=cresc. _ :problem:dynamics with line extensions 	!	!	!	!
!	!	!LO:HP:b:t=cresc.:ext=ud	!	!	!
.	.	<	.	.	.
=46	=46	=46	=46	=46	=46
8BL	8f#L 8d	.	4dd	w ko-	>
8B	8f# 8d	.	.	.	.
8B	8g 8d	.	8b	-ło	]
8BJ	8gJ 8d	[[	8r	.	.
=47	=47	=47	=47	=47	=47
!	!	!	!	!	!LO:HP:a
!LO:TX:a:t=accell.	!	!	!	!	!
8c#L	8aL 8g 8e	.	8b/	Czar-	>
8c#	8a 8g 8e	.	8a	-ne-	]
!	!	!	!	!	!LO:HP:a
8c#	8a 8g 8e	.	8b/	-mi	>
8c#J	8aJ 8g 8e	.	8a	o-	]]
=48	=48	=48	=48	=48	=48
*	*^	*	*	*	*
!LO:TX:a:B:t=rallent. a tempo.	!	!	!	!	!	!
4d	2a	4f#	.	[4a	czy-	.
[4A	.	4e 4c#	.	(>16aLL]	.	.
.	.	.	.	16gJJ	.	.
!	!	!	!	!	!	!LO:DY:a
.	.	.	.	16f#LL	-ma...	.
.	.	.	.	16eJJ)	.	.
*	*v	*v	*	*	*	*
=49	=49	=49	=49	=49	=49
4A] 4D	4f# 4d	p	8d	Nie	.
!	!	!	!	!	!LO:HP:a
.	.	.	8e	patrz	.<
8AL 8D	8f#L 8d	.	8f#	tak	.
8AJ 8D	8f#J 8d	.	8b	we-	[[
=50	=50	=50	=50	=50	=50
*^	*	*	*	*	*
!	!	!	!	!	!	!LO:HP:a
2A	4D	4f# 4d	.	(4a	-so-	>
.	(32qqC#/LLL	.	.	.	.	.
.	32qqBB/JJJ)	.	.	.	.	.
.	(4AA	4f# 4d	.	8f#)	.	]
.	.	.	.	8e	-ło	.
*v	*v	*	*	*	*	*
=51	=51	=51	=51	=51	=51
!	!	!	!	!	!LO:HP:a
4A 4D	4f# 4d)	.	8d	Nie	<
!	!	!	!	!	!LO:HP:a
.	.	.	8e	ma	.
8BL 8D	8f#L 8d	.	8f#	jéy	[
!	!	!	!	!	!LO:HP:a
8BJ 8E	8g#XJ 8d	.	16g#XLL	tu	>
.	.	.	16f#JJ	.	]]
!!LO:LB:g=original
=52	=52	=52	=52	=52	=52
(4A 4E 4AA	(>4a 4c#	.	(4e	nie-	.
8E\ 8AA\)	8cc# 8e)	.	8c#)	-ma	.
8r	8r	.	8r	.	.
=53	=53	=53	=53	=53	=53
!	!	!	!	!	!LO:HP:a
4A 4D	4f# 4d	.	8d	Nie	<
.	.	.	8e	patrz	.
8AL 8D	8f#L 8d	.	8f#	tak	.
8AJ 8D	8f#J 8d	.	8b	we-	[
=54	=54	=54	=54	=54	=54
4A 4D	4f# 4d	.	(4a	so-	.
8AL 8D	8f#L 8d	.	8f#)	.	.
!	!	!	!	!	!LO:HP:a
8AJ 8D	8f#J 8d	.	8a	-ło	<
=55	=55	=55	=55	=55	=55
!	!	!	!	!	!LO:HP:a
!	!	!LO:DY:rj	!	!	!
4GG\	4g 4d 4B-X	.	8b-X/	Nie-	[
!	!	!	!	!	!LO:HP:a
.	.	.	8a	-ma	>
8AA\L	8gL 8c#< 8A<	.	8g	jéy	.
8AAJ	8gJ 8c#< 8A<	.	8e	tu	]
=56	=56	=56	=56	=56	=56
!	!	!	!	!	!LO:HP:a
4D	2f# 2d 2A<	.	8.f#L	nie-	>
.	.	.	16eJk	.	.
4DD\	.	.	4d	-ma.	]
=57||!	=57||!	=57||!	=57||!	=57||!	=57||!
*	*^	*	*	*	*
2A 2D	2a	8.gLL	p	2rdd	.	.
.	.	16f#JJ	.	.	.	.
.	.	16eL	.	.	.	.
.	.	16f#	.	.	.	.
.	.	8dJ	.	.	.	.
=58	=58	=58	=58	=58	=58	=58
2A 2D	2a	8.gLL	.	2rdd	.	.
.	.	16f#JJ	.	.	.	.
.	.	16eL	.	.	.	.
.	.	16f#	.	.	.	.
.	.	8dJ	.	.	.	.
=59	=59	=59	=59	=59	=59	=59
*^	*	*	*	*	*	*
16B/L	2D	16g#LL	8e#	.	2rdd	.	.
16G#J	.	16bJJ	.	.	.	.	.
4.A/	.	4.a	4.f#\	.	.	.	.
*v	*v	*	*	*	*	*	*
!!LO:LB:g=original
=60	=60	=60	=60	=60	=60	=60
*^	*	*	*	*	*	*
16B/L	2D	16g#LL	8e#	.	2rdd	.	.
16G#J	.	16bJJ	.	.	.	.	.
4.A/	.	4.a	4.f#\	.	.	.	.
*v	*v	*	*	*	*	*	*
=61	=61	=61	=61	=61	=61	=61
2A 2D	2a	8.gLL	.	2rdd	.	.
.	.	16f#JJ	.	.	.	.
.	.	16eL	.	.	.	.
.	.	16f#	.	.	.	.
.	.	8dJ	.	.	.	.
=62	=62	=62	=62	=62	=62	=62
2A 2D	2a	8.gLL	.	2rdd	.	.
.	.	16f#JJ	.	.	.	.
.	.	16eL	.	.	.	.
.	.	16f#	.	.	.	.
.	.	8dJ	.	.	.	.
=63	=63	=63	=63	=63	=63	=63
*^	*	*	*	*	*	*
16E/L	2AA\	2a	16c#L	.	2rdd	.	.
16F#J	.	.	16AJ	.	.	.	.
4.E/	.	.	4.c#	.	.	.	.
*v	*v	*	*	*	*	*	*
=64	=64	=64	=64	=64	=64	=64
*^	*	*	*	*	*	*
16E/L	2AA\	2a	16c#L	.	2rdd	.	.
16F#J	.	.	16AJ	.	.	.	.
4.E;</	.	.	4.c#;>	.	.	.	.
*	*	*v	*v	*	*	*	*
*v	*v	*	*	*	*	*
=65||	=65||	=65||	=65||	=65||	=65||
4A 4D	4f# 4d	pp	8d	Po-	.
!	!	!	!	!	!LO:HP:a
.	.	.	8e	-szła	.
8AL 8D	8f#L 8d	.	8f#	na	.
8AJ 8D	8f#J 8d	.	8b/	żoł-	.
=66	=66	=66	=66	=66	=66
*^	*	*	*	*	*
2A	4D	2f# 2d	.	4a	-nie-	.
.	(32qqC#/LLL	.	.	.	.	.
.	32qqBB/JJJ)	.	.	.	.	.
.	4AA	.	.	4f#	-rza	.
*v	*v	*	*	*	*	*
=67	=67	=67	=67	=67	=67
4A 4D	4f# 4d	.	8d	Rzu-	.
.	.	.	8e	-ci-	.
!	!	!	!	!	!LO:HP:a
8BL 8D	8f#L 8d	.	8f#	-ła	.
8BJ 8E	8g#XJ 8d	.	16g#XLL	tę	.
!	!	!	!	!	!LO:HP:a
.	.	.	16f#JJ	.	.
=68	=68	=68	=68	=68	=68
(>4A 4E 4AA	(>4a 4c#	.	4e	chat-	.
8E\ 8AA\)	8cc# 8e)	.	8c#	-kę	.
8r	8r	.	8r	.	.
!!LO:PB:g=original
=69	=69	=69	=69	=69	=69
4A 4D	4f# 4d	.	8d	Ko-	.
.	.	.	8e	-ło	.
8AL 8D	8f#L 8d	.	8f#	te-	.
8AJ 8D	8f#J 8d	.	8b\	-go	.
=70	=70	=70	=70	=70	=70
*^	*	*	*	*	*
2A	4D	2f# 2d	.	4a	krzy-	.
.	(32qqC#/LLL	.	.	.	.	.
.	32qqBB/JJJ)	.	.	.	.	.
.	4AA	.	.	4f#	-ża	.
*v	*v	*	*	*	*	*
=71	=71	=71	=71	=71	=71
4F# 4BB	4f# 4d	.	8d	Po-	.
.	.	.	8e	-że-	.
8F#L 8BB	8f#L 8d 8B	.	8f#	-gna-	.
!	!	!	!	!	!LO:HP:a
8F#J 8BB	8f#J 8d 8B	.	16aLL	ła	>
.	.	.	16gJJ	.	]]
=72	=72	=72	=72	=72	=72
!	!	!LO:DY:rj	!	!	!LO:HP:a
2F# 2FF#	2f# 2c# 2A#X	.	4g	mat-	>
.	.	.	8f#	-kę.	]
!LO:TX:a:t=appass	!	!	!	!	!
.	.	.	8r	.	.
=73	=73	=73	=73	=73	=73
8A#XL	8f#L 8e 8c#	.	8f#	Mo-	.
!	!	!	!	!	!LO:HP:a
8A#	8f# 8e 8c#	.	8f#	-że	.
!	!	!	!	!	!LO:HP:a
8A#	8f# 8e 8c#	.	8g	le-	.
!	!LO:TX:b:t=cresc. _ :problem:dynamics with line extensions 	!	!	!	!
!	!	!LO:HP:b:t=cresc.:ext=ud	!	!	!
8A#J	8f#J 8e 8c#	<	8f#	-cisz	]]
=74	=74	=74	=74	=74	=74
8BL	8f#L 8d	.	4dd	od	.
8B	8f# 8d	.	.	.	.
8B	8g 8d	.	8b	niey?	.
8BJ	8gJ 8d	.	8r	.	.
.	.	.	.	.	.
=75	=75	=75	=75	=75	=75
!	!	!	!	!	!LO:HP:a
!LO:TX:a:t=accell.	!	!	!	!	!
8c#L	8aL 8g 8e	[	8b/	Po-	.
8c#	8a 8g 8e	.	8a	-wiedz-	.
8c#	8a 8g 8e	.	8b/	-że	.
8c#J	8aJ 8g 8e	.	8a	mi	.
!!LO:LB:g=original
=76	=76	=76	=76	=76	=76
*	*^	*	*	*	*
!LO:TX:a:B:t=rall.	!	!	!	!	!	!
4d	2a	4f#	.	[4a	prze-	.
!	!LO:TX:b:B:t=a tempo.	!	!	!	!	!
[4A	.	4e 4c#	.	(>16aLL]	.	.
.	.	.	.	16gJJ	.	.
!	!	!	!	!	!	!LO:DY:a
.	.	.	.	16f#LL	-cie	.
.	.	.	.	16eJJ)	.	.
*	*v	*v	*	*	*	*
=77	=77	=77	=77	=77	=77
4A] 4D	4f# 4d	p	8d	Czy	.
.	.	.	8e	nie	.
8AL 8D	8f#L 8d	.	8f#	są	.
8AJ 8D	8f#J 8d	.	8b	tam	.
=78	=78	=78	=78	=78	=78
*^	*	*	*	*	*
2A	4D	4f# 4d	.	(4a	gło-	.
.	(32qqC#/LLL	.	.	.	.	.
.	32qqBB/JJJ)	.	.	.	.	.
.	(4AA	4f# 4d	.	8f#)	.	.
.	.	.	.	8e	-dni	.
*v	*v	*	*	*	*	*
=79	=79	=79	=79	=79	=79
4A 4D	4f# 4d)	.	8d	Czy	.
.	.	.	8e	do-	.
8BL 8D	8f#L 8d	<	8f#	-brze	.
8BJ 8E	8g#XJ 8d	.	16g#XLL	im	.
.	.	[	16f#JJ	.	.
=80	=80	=80	=80	=80	=80
(4A 4E 4AA	(<4a 4c#	.	4e	w świe-	.
8E\ 8AA\)	8cc# 8e)	.	8c#	-cie?	.
8r	8r	.	8r	.	.
=81	=81	=81	=81	=81	=81
4A 4D	4f# 4d	.	8d	Czy	.
.	.	.	8e	nie	.
8AL 8D	8f#L 8d	.	8f#	są	.
8AJ 8D	8f#J 8d	.	8b	tam	.
!!LO:LB:g=original
=82	=82	=82	=82	=82	=82
4A 4D	4f# 4d	.	(<4a	gło-	.
8AL 8D	8f#L 8d	.	8f#)	.	.
8AJ 8D	8f#J 8d	.	8a	-dni	.
=83	=83	=83	=83	=83	=83
4GG\	4g 4d 4B-X	.	8b-X/	Czy	.
.	.	.	8a	do-	.
8AA\L	8gL 8c#< 8A<	.	8g	-brze	.
8AAJ	8gJ 8c#< 8A<	.	8e	im	.
=84	=84	=84	=84	=84	=84
4D	2f# 2d 2A<	.	8.f#L	w świe-	.
.	.	.	16eJk	.	.
4DD\	.	.	4d	cie?	.
=85	=85	=85	=85	=85	=85
*	*^	*	*	*	*
*ped	*	*	*	*	*	*
2A 2D	(>16ff#L	2f#	pp	2rdd	.	.
.	16aJ	.	.	.	.	.
.	4.dd)	.	.	.	.	.
=86	=86	=86	=86	=86	=86	=86
2A 2D	(>16ff#L	2f#	.	2rdd	.	.
.	16aJ	.	.	.	.	.
.	4.dd)	.	.	.	.	.
=87	=87	=87	=87	=87	=87	=87
[>2A [>2D	(>16ff#L	2f#	.	2rdd	.	.
.	16a	.	.	.	.	.
.	8ddJ)	.	.	.	.	.
.	(>16ff#L	.	.	.	.	.
.	16a	.	.	.	.	.
.	8ddJ)	.	.	.	.	.
*	*v	*v	*	*	*	*
=88	=88	=88	=88	=88	=88
!	!LO:TX:B:t=FINE.	!	!	!	!
2A];> 2D]	2ddd;>	.	2r	.	.
*Xped	*	*	*	*	*
.	.	.	.	.	.
==	==	==	==	==	==
*-	*-	*-	*-	*-	*-
!!title: @{OTL}; @{OPS} @{ONM} publisher: @{PPR}
!!!system-decoration: (s1){(s2,s3)}
!!!RDF**kern: > = above
!!!RDF**kern: < = below
!!!ENC: Antoni Szymański
!!!END: 2019-08-26
!!!EED: Jędrzej Mróz
!!!EST: revision finished 2019-10-14
!!!rism-genre: Poseł
!!!rism-key: D major
!!!rism-opus: op.  74, no. 7
!!!rism-title: Le messager in D major op.  74, no. 7
!!!rism-permalink: https://opac.rism.info/search?id=300605193&View=rism
!!!rism-773a-OPR: 300605186
!!!rism-parent-permalink: https://opac.rism.info/search?id=300605186&View=rism
